X:1
T:Title
%%score { ( 1 4 ) | ( 2 3 ) }
L:1/8
M:3/4
K:Eb
V:1 treble nm="Grand Piano"
V:4 treble 
V:2 bass 
V:3 bass 
V:1
 z2 z2[Q:1/4=106] G2 | G2 F2 A2 | G4 B2 | B2 A2 c2 | B4 B2 | d2 c2 [DB]2 | F2 z2 [B,DA]2 | %7
 [B,EG]6- |[M:2/4] [B,EG]4 |[M:1/4] [B,EG]2 |[M:3/4] [B,A]2 G2 F2 | E4 B2 | e2 d2 c2 | B4 [Ge]2 | %14
 [Ge]4 [EG]2 | B2 z2 [A,DF]2 | [G,E]6- |[M:2/4] [G,E]4 |] %18
V:2
 z2 z2 [E,B,E]2 | [E,E]2 [A,D]2 [F,B,D]2 | [E,B,E]4 [E,G,E]2 | [E,E]4 z2 | [E,G,E]4 [E,G,E]2 | %5
 [B,,F,]4 [B,,F,]2 | z2 G2 B,,2 | E,6- |[M:2/4] E,4 |[M:1/4] E,2 |[M:3/4] F,2 B,2 [A,B,D]2 | %11
 [G,B,]4 [G,B,E]2 | [_G,=A,E]4 [G,A,E]2 | [G,B,E]4 [E,B,]2 | [B,,B,]4 [B,,B,]2 | z2 A2 B,,2 | %16
 E,6- |[M:2/4] E,4 |] %18
V:3
 x6 | B,4 z2 | x6 | G,2 F,2 [E,A,E]2 | x6 | x6 | B,,4 z2 | x6 |[M:2/4] x4 |[M:1/4] x2 |[M:3/4] x6 | %11
 x6 | x6 | x6 | x6 | [B,,F,]4 z2 | x6 |[M:2/4] x4 |] %18
V:4
 x6 | x6 | x6 | x6 | x6 | D4 z2 | [B,D]4 z2 | x6 |[M:2/4] x4 |[M:1/4] x2 |[M:3/4] D4 z2 | x6 | x6 | %13
 x6 | x6 | D4 z2 | x6 |[M:2/4] x4 |] %18

